X: 22014
T: Kitty's Rambles
R: jig
M: 6/8
K: Dmixolydian
|:DFA ^cAA|d^cd efg|fed ^cAG|FAF GEA|
DFA ^cAA|d^cd efg|fed ^cAG|Ad^c d2A:|
|:dfa dfa|dfa afd|ceg ceg|ceg gfe|
fdf g3|afd efg|fed ^cAG|1 Ad^c d2A:|2 Ad^c dfg||
|:afd dAF|Adf a2f|gec cGE|G2e gfe|
fdf g3|afd efg|fed ^cAG|1 Ad^c dfg:|2 Ad^c d2A||

